X:1
T:Op.52
T:Lied des gefangenen Jägers, D.834
T:Der Gräfin Sophie von Weissenwolf gewidmet
T:German text: Adam Storck
T:Op.52, No.7, D.843
T:Franz Schubert
T:Lied des gefangenen Jägers (from "The Lady of the Lake" by Walter Scott) 
T:Creative Commons copyright waiver (CC0 1.0 Universal)
T:Creative Commons copyright waiver (CC0 1.0 Universal)
T:Creative Commons copyright waiver (CC0 1.0 Universal)
T:Creative Commons copyright waiver (CC0 1.0 Universal)
C:Franz Schubert
Z:Sir Walter Scott
Z:Creative Commons copyright waiver (CC0 1.0 Universal)
%%score 1 2
L:1/8
Q:1/4=116
M:3/4
K:F
V:1 treble nm="Singstimme\nVoice"
V:2 treble nm="Pianoforte"
V:1
"^Etwas geschwind" z6 | z6 | z6 | z6 | z6 | z2 z2 z D | F F F3 E/ D/ | A A/ A/ A3 A | %8
w: |||||Mein|Ross so müd' in dem|Stal- le sich steht, mein|
 B B/ B/ B3 A/ G/ | d d/ d/ d3 A | A A/ A/ A2 A A | A/d/ c/ B/ A3 A | BA G F E D | A3/2 A/ A2 z2 | %14
w: Falk' ist der Kapp' und der|Stan- ge so leid, mein|mü- ssi- ges Wind- spiel sein|Fut- * ter ver- schmäht, und|mich * kränkt des Tur- mes|Ein- sam- keit.|
 z6 | z2 z2 z D | ^F F F3/2 F/ G/F/ E/D/ | E E/ E/ E2 E A | A A A2 ^F A | =B/A/ G/^F/ E>F E A | %20
w: |Ach!|wär' ich nur, wo ich _ zu- *|vor bin ge- we- sen, die|Hirsch- jagd wä- re so|recht * mein * We- * sen, den|
 =B3/2 B/ B3 G | d3/2 d/ d2 D ^F | E3/2 E/ A G ^F E/ E/ | ^F2 D2 z F | E3/2 E/ A G ^F E/ E/ | %25
w: Blut- hund los, ge-|spannt den Bo- gen, ja,|sol- chem Le- ben bin ich ge-|wo- gen, ja|sol- chem Le- ben bin ich ge-|
 D>E D2 z2 | z6 | z6 | z6 | z6 | z6 | z6 | z6 | z6 | z6 | z6 | z6 | z6 | z6 | z6 | z2 z2 z D | %41
w: wo- * gen!|||||||||||||||Sonst|
 ^F F/ F/ F2 G/F/ z/ z/ | z6 | z6 | z6 | z6 | z6 | z6 | z6 | z6 | z6 | z6 | z6 | z6 | z6 | z6 | %56
w: pfleg- te die Ler- che *|||||||||||||||
 z6 | z6 | z6 | z z z3 A | A A/ A/ A2 A A | A/d/ c/ B/ A3 z | z6 | z6 | z6 | z6 | z6 | z6 | z6 | %69
w: |||nicht|folg' ich dem flüch- ti- gen|Hirsch * durch den Wald,||||||||
 z6 | z6 | z6 | z6 | z6 | z6 | z6 | z6 | z6 | z6 | z6 | z6 | z6 |] %82
w: |||||||||||||
V:2
 A,A,/A,/ A,A,/A,/ A,A,/A,/ | z6 | z6 | z6 | z6 | z6 | z6 | z6 | z6 | z6 | z6 | z6 | z6 | z6 | z6 | %15
 z6 | z6 | z6 | z6 | z6 | z6 | z6 | z6 | z6 | z6 | z6 | z6 | z6 | z6 | z6 | z6 | z6 | z6 | z6 | %34
 z6 | z6 | z6 | z6 | z6 | z6 | z6 | z6 | z6 | z6 | z6 | z6 | z6 | z6 | z6 | z6 | z6 | z6 | z6 | %53
 z6 | z6 | z6 | z6 | z6 | z6 | z6 | z6 | z6 | z6 | z6 | z6 | z6 | z6 | z6 | z6 | z6 | z6 | z6 | %72
 z6 | z6 | z6 | z6 | z6 | z6 | z6 | z6 | z6 | z6 |] %82

